X:6871
T:The Hags Purse
O:england
M:6/8
L:1/8
S:?
K:DM
dB|ADD FED|ABd cGE|GEE EDE|c2 d cGE|A3 DAD|A2d cGE|GEE cGE|EDD D3:|
|Add fdd|ged cGE|GEE EDE|c2 D cGE|A2 d fdd|ged cGE|GEE cGE|EDD DDD:|


